X:1
T:Jim Ward's
R:double jig
M:6/8
L:1/8
K:G
~G3 GAB|AGE GED|~G3 AGE|GED D2 E|~G3 GAB|AGE GAB|c2A BGE|DED D2 B:|
c2 A BAG|ABA AGE|c2 A BGE|EDE GAB|c2 A BAG|ABA ABc|dcA AGE|DED D3:|
